!!!OTL: 72. Gas-nign
!!!Genre:	Gas-nign
!!!Mode:	Minor
!!!Listening/dance:	listening
!!!One_Mode:	no
**kern
*I"P1
*clefG2
*k[b-e-]
*g:
*M3/4
*>A
=1
!LO:TX:a:i:t=G-minor
4d
4g
4a
=2
2b-
8aL
8gJ
=3
8aL
8b-
8cc
8dd
8a
8ccJ
=4
2b-
8aL
8gJ
=5
4d
4g
4a
=6
2b-
8aL
8gJ
=7
8f#XL
8g
8a
8b-
8f#
8aJ
=8
2.g
*>bM
*B-:
!LO:TX:a:i:t=Bb-major
=9||
*>B
4f
4b-
4cc
=10
2dd
8ccL
8b-J
=11
8ffL
8ee-
8ff
8ee-
8ff
8ee-J
=12
2dd
8ccL
8b-J
=13
4f
4b-
4cc
=14
2dd
8ccL
8b-J
=15
8aL
8b-
8cc
8dd
8a
8ccJ
=16
4b-
4r
4r
*>eM
*g:
!LO:TX:a:i:t=G-minor
=17!|:
*>C
4b-
4dd
(8qdd/
8ccL)
8b-J
=18
4a
4cc
8b-L
8aJ
=19
4g
4b-
(8aL
8gJ)
=20
4f#X
2d
=21
4d
4f#X
4a
*>C1
=22
8ccL
(8qdd/
8ccJ)
4b-
4a
=23
4dd
(8qff/
4dd)
(8qff/
4dd)
=24
8ddL
8ddJ
4b-
4g
*>C2
=25:|!
8ccL
(8qdd/
8ccJ)
4b-
4a
=26
4g
(8qb-/
4g)
(8qb-/
4g)
=27
(8qb-/
4g)
4r
4r
==
*-
